_includes/icons/ios-aquarium.svg

<svg fill="#666" height="50" viewBox="0 0 50 50" width="50" xmlns="http://www.w3.org/2000/svg"><path d="m10 4c-1.644531 0-3 1.355469-3 3v1h.414063c.175781.433594.421875.832031.726562 1.15625-3.804687 4.125-6.140625 9.644531-6.140625 15.707031 0 8.53125 4.597656 15.992188 11.4375 20l.234375.136719h22.65625l.234375-.136719c6.839844-4.007812 11.4375-11.46875 11.4375-20 0-6.0625-2.335937-11.582031-6.140625-15.707031.304688-.324219.550781-.722656.722656-1.15625h.417969v-1c0-1.644531-1.355469-3-3-3zm0 2h30c.554688 0 1 .445313 1 1 0 .554688-.445312 1-1 1h-30c-.554687 0-1-.445312-1-1 0-.554687.445313-1 1-1zm.144531 4h29.710938c1.207031 1.222656 2.25 2.601563 3.140625 4.082031-.519531-.058593-1.015625-.097656-1.429688-.078125-7.574218.011719-15.324218 3.996094-21.964843 3.996094-5.460938 0-9.582032-1.015625-13.265625-2.722656 1-1.949219 2.285156-3.734375 3.808593-5.277344zm31.511719 6c.238281-.015625.972656.03125 1.609375.128906.316406.050782.621094.109375.847656.167969.023438.007813.035157.011719.054688.019531 1.167969 2.609375 1.832031 5.492188 1.832031 8.546875 0 7.730469-4.132812 14.449219-10.273437 18.136719h-21.453125c-6.140625-3.6875-10.273438-10.40625-10.273438-18.136719 0-2.753906.535156-5.371093 1.492188-7.769531 3.9375 1.816406 8.398437 2.90625 14.109375 2.90625 7.410156 0 15.152343-4 22-4zm-7.15625 3c-.828125 0-1.5.671875-1.5 1.5s.671875 1.5 1.5 1.5 1.5-.671875 1.5-1.5-.671875-1.5-1.5-1.5zm-3 4c-.828125 0-1.5.671875-1.5 1.5s.671875 1.5 1.5 1.5 1.5-.671875 1.5-1.5-.671875-1.5-1.5-1.5zm-17.5 4c.492188.625 1 3.542969 1 5 0 1.445313-.507812 4.375-1 5 1.472656-.625 3.046875-2.667969 3.421875-3.671875.003906 0 .035156-.082031.042969-.09375 1.890625 1.589844 4.234375 3.765625 7.507812 3.765625 3.304688 0 8.027344-3.890625 8.027344-5.554687 0-1.667969-4.722656-4.445313-8.027344-4.445313-4.144531 0-7.339843 3.644531-7.5 3.828125l-.035156-.078125s-.980469-2.5-3.4375-3.75zm21 0c-.550781 0-1 .449219-1 1s.449219 1 1 1 1-.449219 1-1-.449219-1-1-1zm-10.027344 2c2.203125 0 5.046875 1.621094 5.886719 2.511719-.804687 1.144531-3.855469 3.488281-5.886719 3.488281-2.328125 0-4.199218-1.585937-5.851562-2.984375l-.011719-.011719c.644531-.671875 3.082031-3.003906 5.863281-3.003906zm1.027344 1c-.550781 0-1 .449219-1 1s.449219 1 1 1 1-.449219 1-1-.449219-1-1-1z"/></svg>

<svg xmlns="http://www.w3.org/2000/svg" viewBox="0 0 50 50" width="50" height="50" fill="#666"><path d="M 10 4 C 8.355469 4 7 5.355469 7 7 L 7 8 L 7.414063 8 C 7.589844 8.433594 7.835938 8.832031 8.140625 9.15625 C 4.335938 13.28125 2 18.800781 2 24.863281 C 2 33.394531 6.597656 40.855469 13.4375 44.863281 L 13.671875 45 L 36.328125 45 L 36.5625 44.863281 C 43.402344 40.855469 48 33.394531 48 24.863281 C 48 18.800781 45.664063 13.28125 41.859375 9.15625 C 42.164063 8.832031 42.410156 8.433594 42.582031 8 L 43 8 L 43 7 C 43 5.355469 41.644531 4 40 4 Z M 10 6 L 40 6 C 40.554688 6 41 6.445313 41 7 C 41 7.554688 40.554688 8 40 8 L 10 8 C 9.445313 8 9 7.554688 9 7 C 9 6.445313 9.445313 6 10 6 Z M 10.144531 10 L 39.855469 10 C 41.0625 11.222656 42.105469 12.601563 42.996094 14.082031 C 42.476563 14.023438 41.980469 13.984375 41.566406 14.003906 C 33.992188 14.015625 26.242188 18 19.601563 18 C 14.140625 18 10.019531 16.984375 6.335938 15.277344 C 7.335938 13.328125 8.621094 11.542969 10.144531 10 Z M 41.65625 16 C 41.894531 15.984375 42.628906 16.03125 43.265625 16.128906 C 43.582031 16.179688 43.886719 16.238281 44.113281 16.296875 C 44.136719 16.304688 44.148438 16.308594 44.167969 16.316406 C 45.335938 18.925781 46 21.808594 46 24.863281 C 46 32.59375 41.867188 39.3125 35.726563 43 L 14.273438 43 C 8.132813 39.3125 4 32.59375 4 24.863281 C 4 22.109375 4.535156 19.492188 5.492188 17.09375 C 9.429688 18.910156 13.890625 20 19.601563 20 C 27.011719 20 34.753906 16 41.601563 16 Z M 34.5 19 C 33.671875 19 33 19.671875 33 20.5 C 33 21.328125 33.671875 22 34.5 22 C 35.328125 22 36 21.328125 36 20.5 C 36 19.671875 35.328125 19 34.5 19 Z M 31.5 23 C 30.671875 23 30 23.671875 30 24.5 C 30 25.328125 30.671875 26 31.5 26 C 32.328125 26 33 25.328125 33 24.5 C 33 23.671875 32.328125 23 31.5 23 Z M 14 27 C 14.492188 27.625 15 30.542969 15 32 C 15 33.445313 14.492188 36.375 14 37 C 15.472656 36.375 17.046875 34.332031 17.421875 33.328125 C 17.425781 33.328125 17.457031 33.246094 17.464844 33.234375 C 19.355469 34.824219 21.699219 37 24.972656 37 C 28.277344 37 33 33.109375 33 31.445313 C 33 29.777344 28.277344 27 24.972656 27 C 20.828125 27 17.632813 30.644531 17.472656 30.828125 L 17.4375 30.75 C 17.4375 30.75 16.457031 28.25 14 27 Z M 35 27 C 34.449219 27 34 27.449219 34 28 C 34 28.550781 34.449219 29 35 29 C 35.550781 29 36 28.550781 36 28 C 36 27.449219 35.550781 27 35 27 Z M 24.972656 29 C 27.175781 29 30.019531 30.621094 30.859375 31.511719 C 30.054688 32.65625 27.003906 35 24.972656 35 C 22.644531 35 20.773438 33.414063 19.121094 32.015625 L 19.109375 32.003906 C 19.753906 31.332031 22.191406 29 24.972656 29 Z M 26 30 C 25.449219 30 25 30.449219 25 31 C 25 31.550781 25.449219 32 26 32 C 26.550781 32 27 31.550781 27 31 C 27 30.449219 26.550781 30 26 30 Z"/></svg>
